Newaita/actions/16/format-border-set-none.svg

<svg height="16" viewBox="0 0 16 16" width="16" xmlns="http://www.w3.org/2000/svg"><g fill="#424242"><path d="m3.308594 2.769531h9.261718c.363282 0 .660157.296875.660157.664063v9.261718c0 .363282-.296875.660157-.660157.660157h-9.261718c-.367188 0-.664063-.296875-.664063-.660157v-9.261718c0-.367188.296875-.664063.664063-.664063zm0 0" fill-opacity=".392157"/><path d="m1.984375 7.734375h11.90625v.660156h-11.90625zm0 0"/><path d="m8.269531 2.109375v11.90625h-.660156v-11.90625zm0 0"/><path d="m2.644531 1.449219c-.730469 0-1.320312.589843-1.320312 1.320312v10.585938c0 .734375.589843 1.324219 1.320312 1.324219h10.585938c.734375 0 1.324219-.589844 1.324219-1.324219v-10.585938c0-.730469-.589844-1.320312-1.324219-1.320312zm.664063 1.320312h9.261718c.363282 0 .660157.296875.660157.664063v9.261718c0 .363282-.296875.660157-.660157.660157h-9.261718c-.367188 0-.664063-.296875-.664063-.660157v-9.261718c0-.367188.296875-.664063.664063-.664063zm0 0"/></g></svg>

<svg xmlns="http://www.w3.org/2000/svg" xmlns:xlink="http://www.w3.org/1999/xlink" width="16px" height="16px" viewBox="0 0 16 16" version="1.1">
<g id="surface1">
<path style=" stroke:none;fill-rule:nonzero;fill:rgb(25.882354%,25.882354%,25.882354%);fill-opacity:0.392157;" d="M 3.308594 2.769531 L 12.570312 2.769531 C 12.933594 2.769531 13.230469 3.066406 13.230469 3.433594 L 13.230469 12.695312 C 13.230469 13.058594 12.933594 13.355469 12.570312 13.355469 L 3.308594 13.355469 C 2.941406 13.355469 2.644531 13.058594 2.644531 12.695312 L 2.644531 3.433594 C 2.644531 3.066406 2.941406 2.769531 3.308594 2.769531 Z M 3.308594 2.769531 "/>
     <defs>
  <style id="current-color-scheme" type="text/css">
   .ColorScheme-Text { color:#424242; } .ColorScheme-Highlight { color:#eeeeee; }
  </style>
 </defs>
<path style="fill:currentColor" class="ColorScheme-Text" d="M 1.984375 7.734375 L 13.890625 7.734375 L 13.890625 8.394531 L 1.984375 8.394531 Z M 1.984375 7.734375 "/>
     <defs>
  <style id="current-color-scheme" type="text/css">
   .ColorScheme-Text { color:#424242; } .ColorScheme-Highlight { color:#eeeeee; }
  </style>
 </defs>
<path style="fill:currentColor" class="ColorScheme-Text" d="M 8.269531 2.109375 L 8.269531 14.015625 L 7.609375 14.015625 L 7.609375 2.109375 Z M 8.269531 2.109375 "/>
     <defs>
  <style id="current-color-scheme" type="text/css">
   .ColorScheme-Text { color:#424242; } .ColorScheme-Highlight { color:#eeeeee; }
  </style>
 </defs>
<path style="fill:currentColor" class="ColorScheme-Text" d="M 2.644531 1.449219 C 1.914062 1.449219 1.324219 2.039062 1.324219 2.769531 L 1.324219 13.355469 C 1.324219 14.089844 1.914062 14.679688 2.644531 14.679688 L 13.230469 14.679688 C 13.964844 14.679688 14.554688 14.089844 14.554688 13.355469 L 14.554688 2.769531 C 14.554688 2.039062 13.964844 1.449219 13.230469 1.449219 Z M 3.308594 2.769531 L 12.570312 2.769531 C 12.933594 2.769531 13.230469 3.066406 13.230469 3.433594 L 13.230469 12.695312 C 13.230469 13.058594 12.933594 13.355469 12.570312 13.355469 L 3.308594 13.355469 C 2.941406 13.355469 2.644531 13.058594 2.644531 12.695312 L 2.644531 3.433594 C 2.644531 3.066406 2.941406 2.769531 3.308594 2.769531 Z M 3.308594 2.769531 "/>
</g>
</svg>
